packages/core/src/svgs/tokens/branded/BOTTO.svg

<svg width="24" height="24" viewBox="0 0 24 24" fill="none" xmlns="http://www.w3.org/2000/svg">
<path fill-rule="evenodd" clip-rule="evenodd" d="M13.6202 22C17.9267 22 20.6668 19.98 20.6668 16.4C20.6668 13.2933 18.0068 11.7533 14.3334 11.6666V11.6066C17.7601 11.3 20.0669 9.51327 20.0669 6.58C20.0669 3.44666 17.4002 2 13.1535 2H3.3335V2.06L5.08682 3.84667C5.30682 4.08001 5.3335 4.15999 5.3335 4.53333V19.4666C5.3335 19.84 5.30682 19.9199 5.08682 20.1533L3.3335 21.9333V22H13.6202ZM11.7002 11.3333H10.0001V3.23334C10.0001 2.75334 10.0802 2.66666 10.4935 2.66666H11.8069C13.8069 2.66666 14.6668 4.27333 14.6668 6.80666C14.6668 9.62667 13.7801 11.3333 11.7002 11.3333ZM10.6601 21.3333H11.8069C14.3334 21.3333 15.3335 19.6667 15.3335 16.5666C15.3335 13.5199 14.3068 12 11.7268 12H10.0001V20.8133C10.0001 21.3067 10.1001 21.3333 10.6601 21.3333Z" fill="#1C1C1C"/>
</svg>

<svg xmlns="http://www.w3.org/2000/svg" width="24" height="24" fill="none" viewBox="0 0 24 24">
    <path fill="#1C1C1C" fill-rule="evenodd" d="M13.62 22c4.307 0 7.047-2.02 7.047-5.6 0-3.107-2.66-4.647-6.334-4.733v-.06c3.427-.307 5.734-2.094 5.734-5.027C20.067 3.447 17.4 2 13.153 2h-9.82v.06l1.754 1.787c.22.233.247.313.247.686v14.934c0 .373-.027.453-.247.686l-1.753 1.78V22zM11.7 11.333H10v-8.1c0-.48.08-.566.493-.566h1.314c2 0 2.86 1.606 2.86 4.14 0 2.82-.887 4.526-2.967 4.526m-1.04 10h1.147c2.526 0 3.527-1.666 3.527-4.766 0-3.047-1.027-4.567-3.607-4.567H10v8.813c0 .494.1.52.66.52" clip-rule="evenodd"/>
</svg>
